assets/logos/linkedin.svg

<svg width="52" height="50" viewBox="0 0 52 50" fill="none" xmlns="http://www.w3.org/2000/svg">
<rect x="3.19153" y="3.125" width="44.6809" height="43.75" rx="21.875" fill="#1275B1"/>
<path d="M20.136 15.144C20.136 16.6042 18.8434 17.788 17.2488 17.788C15.6543 17.788 14.3617 16.6042 14.3617 15.144C14.3617 13.6838 15.6543 12.5 17.2488 12.5C18.8434 12.5 20.136 13.6838 20.136 15.144Z" fill="white"/>
<path d="M14.7565 19.7314H19.6918V34.375H14.7565V19.7314Z" fill="white"/>
<path d="M27.6376 19.7314H22.7023V34.375H27.6376C27.6376 34.375 27.6376 29.765 27.6376 26.8826C27.6376 25.1525 28.2409 23.4149 30.6482 23.4149C33.3686 23.4149 33.3523 25.679 33.3396 27.433C33.323 29.7257 33.3626 32.0654 33.3626 34.375H38.2979V26.6464C38.2561 21.7115 36.9428 19.4376 32.6223 19.4376C30.0565 19.4376 28.466 20.5782 27.6376 21.6101V19.7314Z" fill="white"/>
</svg>

<?xml version="1.0"?>
<svg width="52" height="50" xmlns="http://www.w3.org/2000/svg" xmlns:svg="http://www.w3.org/2000/svg">
 <g class="layer">
  <title>Layer 1</title>
  <path d="m20.14,15.14c0,1.46 -1.3,2.65 -2.89,2.65c-1.6,0 -2.89,-1.19 -2.89,-2.65c0,-1.46 1.29,-2.64 2.89,-2.64c1.59,0 2.89,1.18 2.89,2.64z" fill="white" id="svg_2"/>
  <path d="m14.76,19.73l4.93,0l0,14.65l-4.93,0l0,-14.65z" fill="white" id="svg_3"/>
  <path d="m27.64,19.73l-4.94,0l0,14.65l4.94,0c0,0 0,-4.61 0,-7.5c0,-1.73 0.6,-3.47 3.01,-3.47c2.72,0 2.7,2.27 2.69,4.02c-0.02,2.3 0.02,4.64 0.02,6.95l4.94,0l0,-7.73c-0.04,-4.94 -1.36,-7.21 -5.68,-7.21c-2.56,0 -4.15,1.14 -4.98,2.17l0,-1.88z" fill="white" id="svg_4"/>
 </g>
</svg>
